X:1     %Music
T:Good King Enery
B:Journal of the English Folk Dance Society, 1928, Oxford University Press, London
Z:Anne G Gilchrist
S:Mr Dent, Orton, 1914
M:6/8     %Meter
L:1/8     %
K:F
C |F2 F F2 A |G2 F E3 |F2 D D3 |
w:When first King Ener-y ruled this land, ruled this land,
C2 B, A,2 C |F2 F F2 A |G2 F E2  
w:ruled this land, When first King Ener-y ruled this land,
|:G |F E D2 E2  C |(D3 D2)  :|
w:He was a most gra-cious king.*